box-ultimo-tracker-hsjcomm.svg

<?xml version="1.0" encoding="UTF-8" standalone="no"?>
<svg
   width="263mm"
   height="193mm"
   viewBox="0 0 263 193"
   version="1.1"
   preserveAspectRatio="xMidYMid meet"
   id="svg1"
   sodipodi:docname="box-ultimo-tracker-hsjcomm.svg"
   inkscape:version="1.3.2 (091e20e, 2023-11-25)"
   xmlns:inkscape="http://www.inkscape.org/namespaces/inkscape"
   xmlns:sodipodi="http://sodipodi.sourceforge.net/DTD/sodipodi-0.dtd"
   xmlns="http://www.w3.org/2000/svg"
   xmlns:svg="http://www.w3.org/2000/svg">
  <defs
     id="defs1" />
  <sodipodi:namedview
     id="namedview1"
     pagecolor="#ffffff"
     bordercolor="#000000"
     borderopacity="0.25"
     inkscape:showpageshadow="2"
     inkscape:pageopacity="0.0"
     inkscape:pagecheckerboard="0"
     inkscape:deskcolor="#d1d1d1"
     inkscape:document-units="mm"
     showgrid="true"
     inkscape:zoom="3.1908533"
     inkscape:cx="144.47546"
     inkscape:cy="259.96181"
     inkscape:window-width="1088"
     inkscape:window-height="1920"
     inkscape:window-x="0"
     inkscape:window-y="0"
     inkscape:window-maximized="0"
     inkscape:current-layer="svg1">
    <inkscape:grid
       id="grid1"
       units="mm"
       originx="0"
       originy="0"
       spacingx="1"
       spacingy="1"
       empcolor="#0099e5"
       empopacity="0.30196078"
       color="#0099e5"
       opacity="0.14901961"
       empspacing="5"
       dotted="false"
       gridanglex="30"
       gridanglez="30"
       visible="true" />
  </sodipodi:namedview>
  <path
     style="font-size:12px;fill:none;fill-rule:evenodd;stroke:#000000;stroke-width:0.1;stroke-linecap:round"
     d="m 0,157 v 9 h 3 v 7.375 h 3.95 v -1.25 H 9.6 v 1.25 h 2.65 v 3.25 H 9.6 v 1.25 H 6.95 v -1.25 H 3 V 184 H 0 v 9 h 20.25 v -3 h 18.625 v -3.95 h -1.25 v -2.65 h 1.25 v -2.65 h 3.25 v 2.65 h 1.25 v 2.65 h -1.25 V 190 H 60.75 v 3 H 81 v -9 h -3 v -7.375 h -3.95 v 1.25 H 71.4 v -1.25 h -2.65 v -3.25 h 2.65 v -1.25 h 2.65 v 1.25 H 78 V 166 h 3 v -9 H 60.75 v 3 H 42.125 v 3.95 h 1.25 v 2.65 h -1.25 v 2.65 h -3.25 v -2.65 h -1.25 v -2.65 h 1.25 V 160 H 20.25 v -3 z"
     id="front_outsideCutPath" />
  <path
     style="font-size:12px;fill:none;fill-rule:evenodd;stroke:#000000;stroke-width:0.1;stroke-linecap:round"
     d="m 87,157 v 9 h -3 v 7.375 h 3.25 V 175 176.625 H 84 V 184 h 3 v 9 h 20.75 v -3 h 22.125 v -3.95 h -1.25 v -2.65 h 1.25 v -2.65 h 3.25 v 2.65 h 1.25 v 2.65 h -1.25 V 190 h 22.125 v 3 H 176 v -9 h 3 v -7.375 h -3.25 V 175 173.375 H 179 V 166 h -3 v -9 h -20.75 v 3 h -22.125 v 3.95 h 1.25 v 2.65 h -1.25 v 2.65 h -3.25 v -2.65 h -1.25 v -2.65 h 1.25 V 160 H 107.75 v -3 z"
     id="left_outsideCutPath" />
  <path
     style="font-size:12px;fill:none;fill-rule:evenodd;stroke:#000000;stroke-width:0.1;stroke-linecap:round"
     d="m 185,101 v 20.75 h -3 v 22.125 h 3.25 v 1.625 1.625 H 182 v 22.125 h 3 V 190 h 17.25 v 3 h 18.625 v -3.25 h 1.625 1.625 V 193 h 18.625 v -3 H 260 v -20.75 h 3 v -22.125 h -3.25 V 145.5 143.875 H 263 V 121.75 h -3 V 101 h -17.25 v -3 h -18.625 v 3.25 H 222.5 220.875 V 98 H 202.25 v 3 z"
     id="top_outsideCutPath" />
  <path
     style="font-size:12px;fill:none;fill-rule:evenodd;stroke:#000000;stroke-width:0.1;stroke-linecap:round"
     d="m 0,118 v 9 h 3 v 7.375 h 3.95 v -1.25 H 9.6 v 1.25 h 2.65 v 3.25 H 9.6 v 1.25 H 6.95 v -1.25 H 3 V 145 H 0 v 9 h 20.25 v -3 h 18.625 v -3.95 h -1.25 v -2.65 h 1.25 v -2.65 h 3.25 v 2.65 h 1.25 v 2.65 h -1.25 V 151 H 60.75 v 3 H 81 v -9 h -3 v -7.375 h -3.95 v 1.25 H 71.4 v -1.25 h -2.65 v -3.25 h 2.65 v -1.25 h 2.65 v 1.25 H 78 V 127 h 3 v -9 H 60.75 v 3 H 42.125 v 3.95 h 1.25 v 2.65 h -1.25 v 2.65 h -3.25 v -2.65 h -1.25 v -2.65 h 1.25 V 121 H 20.25 v -3 z"
     id="back_outsideCutPath" />
  <path
     style="font-size:12px;fill:none;fill-rule:evenodd;stroke:#000000;stroke-width:0.1;stroke-linecap:round"
     d="m 83.9,33.173567 v 9 h -3 v 7.375 h -3.95 v -1.25 H 74.3 v 1.25 h -2.65 v 3.25 h 2.65 v 1.25 h 2.65 v -1.25 h 3.95 v 7.375 h 3 v 9 H 63.65 v -3 H 45.025 v -3.95 h 1.25 v -2.65 h -1.25 v -2.65 h -3.25 v 2.65 h -1.25 v 2.65 h 1.25 v 3.95 H 23.15 v 3 H 2.9 v -9 h 3 v -7.375 h 3.95 v 1.25 h 2.65 v -1.25 h 2.65 v -3.25 H 12.5 v -1.25 H 9.85 v 1.25 H 5.9 v -7.375 h -3 v -9 h 20.25 v 3 h 18.625 v 3.95 h -1.25 v 2.65 h 1.25 v 2.65 h 3.25 v -2.65 h 1.25 v -2.65 h -1.25 v -3.95 H 63.65 v -3 z"
     id="back_outsideCutPath-8" />
  <path
     style="font-size:12px;fill:none;fill-rule:evenodd;stroke:#000000;stroke-width:0.1;stroke-linecap:round"
     d="m 87,118 v 9 h -3 v 7.375 h 3.25 V 136 137.625 H 84 V 145 h 3 v 9 h 20.75 v -3 h 22.125 v -3.95 h -1.25 v -2.65 h 1.25 v -2.65 h 3.25 v 2.65 h 1.25 v 2.65 h -1.25 V 151 h 22.125 v 3 H 176 v -9 h 3 v -7.375 h -3.25 V 136 134.375 H 179 V 127 h -3 v -9 h -20.75 v 3 h -22.125 v 3.95 h 1.25 v 2.65 h -1.25 v 2.65 h -3.25 v -2.65 h -1.25 v -2.65 h 1.25 V 121 H 107.75 v -3 z"
     id="right_outsideCutPath" />
  <path
     style="font-size:12px;fill:none;fill-rule:evenodd;stroke:#000000;stroke-width:0.1;stroke-linecap:round"
     d="m 185,3 v 20.75 h -3 v 22.125 h 3.25 V 47.5 49.125 H 182 V 71.25 h 3 V 92 h 17.25 v 3 h 18.625 v -3.25 h 1.625 1.625 V 95 H 242.75 V 92 H 260 V 71.25 h 3 V 49.125 h -3.25 V 47.5 45.875 H 263 V 23.75 h -3 V 3 H 242.75 V 0 H 224.125 V 3.25 H 222.5 220.875 V 0 H 202.25 v 3 z"
     id="bottom_outsideCutPath" />
  <rect
     style="fill:none;fill-rule:evenodd;stroke:#ff00ff;stroke-width:0.1;paint-order:fill markers stroke"
     id="rect1-0"
     width="14"
     height="8"
     x="-29.887501"
     y="56.153999"
     ry="1.4305826e-14"
     transform="scale(-1,1)" />
  <ellipse
     style="fill:none;fill-rule:evenodd;stroke:#ff00ff;stroke-width:0.13049;paint-order:fill markers stroke"
     id="path2"
     cx="-18.708"
     cy="-45.223568"
     rx="2.9347546"
     ry="2.9347548"
     transform="scale(-1)" />
  <ellipse
     style="fill:none;fill-rule:evenodd;stroke:#ff00ff;stroke-width:0.13049;paint-order:fill markers stroke"
     id="path2-4"
     cx="-31.808002"
     cy="-45.223568"
     rx="2.9347546"
     ry="2.9347548"
     transform="scale(-1)" />
  <ellipse
     style="fill:none;fill-rule:evenodd;stroke:#ff00ff;stroke-width:0.13049;paint-order:fill markers stroke"
     id="path2-4-4"
     cx="-54.899124"
     cy="-45.223568"
     rx="2.9347546"
     ry="2.9347548"
     transform="scale(-1)" />
</svg>

<svg width="263mm" height="193mm" viewBox="0 0 263 193" xmlns="http://www.w3.org/2000/svg" version="1.1" preserveAspectRatio="xMidYMid meet"><g id="svgGroup" stroke-linecap="round" fill-rule="evenodd" font-size="9pt" stroke="#000" stroke-width="0.25mm" fill="none" style="stroke:#000;stroke-width:0.25mm;fill:none"><path d="M 0 157 L 0 166 L 3 166 L 3 173.375 L 6.95 173.375 L 6.95 172.125 L 9.6 172.125 L 9.6 173.375 L 12.25 173.375 L 12.25 176.625 L 9.6 176.625 L 9.6 177.875 L 6.95 177.875 L 6.95 176.625 L 3 176.625 L 3 184 L 0 184 L 0 193 L 20.25 193 L 20.25 190 L 38.875 190 L 38.875 186.05 L 37.625 186.05 L 37.625 183.4 L 38.875 183.4 L 38.875 180.75 L 42.125 180.75 L 42.125 183.4 L 43.375 183.4 L 43.375 186.05 L 42.125 186.05 L 42.125 190 L 60.75 190 L 60.75 193 L 81 193 L 81 184 L 78 184 L 78 176.625 L 74.05 176.625 L 74.05 177.875 L 71.4 177.875 L 71.4 176.625 L 68.75 176.625 L 68.75 173.375 L 71.4 173.375 L 71.4 172.125 L 74.05 172.125 L 74.05 173.375 L 78 173.375 L 78 166 L 81 166 L 81 157 L 60.75 157 L 60.75 160 L 42.125 160 L 42.125 163.95 L 43.375 163.95 L 43.375 166.6 L 42.125 166.6 L 42.125 169.25 L 38.875 169.25 L 38.875 166.6 L 37.625 166.6 L 37.625 163.95 L 38.875 163.95 L 38.875 160 L 20.25 160 L 20.25 157 L 0 157 Z" id="front_outsideCutPath" stroke="#000000" stroke-width="0.1" style="stroke:#000000;stroke-width:0.1" vector-effect="non-scaling-stroke"/><path d="M 87 157 L 87 166 L 84 166 L 84 173.375 L 87.25 173.375 L 87.25 175 L 87.25 176.625 L 84 176.625 L 84 184 L 87 184 L 87 193 L 107.75 193 L 107.75 190 L 129.875 190 L 129.875 186.05 L 128.625 186.05 L 128.625 183.4 L 129.875 183.4 L 129.875 180.75 L 133.125 180.75 L 133.125 183.4 L 134.375 183.4 L 134.375 186.05 L 133.125 186.05 L 133.125 190 L 155.25 190 L 155.25 193 L 176 193 L 176 184 L 179 184 L 179 176.625 L 175.75 176.625 L 175.75 175 L 175.75 173.375 L 179 173.375 L 179 166 L 176 166 L 176 157 L 155.25 157 L 155.25 160 L 133.125 160 L 133.125 163.95 L 134.375 163.95 L 134.375 166.6 L 133.125 166.6 L 133.125 169.25 L 129.875 169.25 L 129.875 166.6 L 128.625 166.6 L 128.625 163.95 L 129.875 163.95 L 129.875 160 L 107.75 160 L 107.75 157 L 87 157 Z" id="left_outsideCutPath" stroke="#000000" stroke-width="0.1" style="stroke:#000000;stroke-width:0.1" vector-effect="non-scaling-stroke"/><path d="M 185 101 L 185 121.75 L 182 121.75 L 182 143.875 L 185.25 143.875 L 185.25 145.5 L 185.25 147.125 L 182 147.125 L 182 169.25 L 185 169.25 L 185 190 L 202.25 190 L 202.25 193 L 220.875 193 L 220.875 189.75 L 222.5 189.75 L 224.125 189.75 L 224.125 193 L 242.75 193 L 242.75 190 L 260 190 L 260 169.25 L 263 169.25 L 263 147.125 L 259.75 147.125 L 259.75 145.5 L 259.75 143.875 L 263 143.875 L 263 121.75 L 260 121.75 L 260 101 L 242.75 101 L 242.75 98 L 224.125 98 L 224.125 101.25 L 222.5 101.25 L 220.875 101.25 L 220.875 98 L 202.25 98 L 202.25 101 L 185 101 Z" id="top_outsideCutPath" stroke="#000000" stroke-width="0.1" style="stroke:#000000;stroke-width:0.1" vector-effect="non-scaling-stroke"/><path d="M 0 118 L 0 127 L 3 127 L 3 134.375 L 6.95 134.375 L 6.95 133.125 L 9.6 133.125 L 9.6 134.375 L 12.25 134.375 L 12.25 137.625 L 9.6 137.625 L 9.6 138.875 L 6.95 138.875 L 6.95 137.625 L 3 137.625 L 3 145 L 0 145 L 0 154 L 20.25 154 L 20.25 151 L 38.875 151 L 38.875 147.05 L 37.625 147.05 L 37.625 144.4 L 38.875 144.4 L 38.875 141.75 L 42.125 141.75 L 42.125 144.4 L 43.375 144.4 L 43.375 147.05 L 42.125 147.05 L 42.125 151 L 60.75 151 L 60.75 154 L 81 154 L 81 145 L 78 145 L 78 137.625 L 74.05 137.625 L 74.05 138.875 L 71.4 138.875 L 71.4 137.625 L 68.75 137.625 L 68.75 134.375 L 71.4 134.375 L 71.4 133.125 L 74.05 133.125 L 74.05 134.375 L 78 134.375 L 78 127 L 81 127 L 81 118 L 60.75 118 L 60.75 121 L 42.125 121 L 42.125 124.95 L 43.375 124.95 L 43.375 127.6 L 42.125 127.6 L 42.125 130.25 L 38.875 130.25 L 38.875 127.6 L 37.625 127.6 L 37.625 124.95 L 38.875 124.95 L 38.875 121 L 20.25 121 L 20.25 118 L 0 118 Z" id="back_outsideCutPath" stroke="#000000" stroke-width="0.1" style="stroke:#000000;stroke-width:0.1" vector-effect="non-scaling-stroke"/><path d="M 87 118 L 87 127 L 84 127 L 84 134.375 L 87.25 134.375 L 87.25 136 L 87.25 137.625 L 84 137.625 L 84 145 L 87 145 L 87 154 L 107.75 154 L 107.75 151 L 129.875 151 L 129.875 147.05 L 128.625 147.05 L 128.625 144.4 L 129.875 144.4 L 129.875 141.75 L 133.125 141.75 L 133.125 144.4 L 134.375 144.4 L 134.375 147.05 L 133.125 147.05 L 133.125 151 L 155.25 151 L 155.25 154 L 176 154 L 176 145 L 179 145 L 179 137.625 L 175.75 137.625 L 175.75 136 L 175.75 134.375 L 179 134.375 L 179 127 L 176 127 L 176 118 L 155.25 118 L 155.25 121 L 133.125 121 L 133.125 124.95 L 134.375 124.95 L 134.375 127.6 L 133.125 127.6 L 133.125 130.25 L 129.875 130.25 L 129.875 127.6 L 128.625 127.6 L 128.625 124.95 L 129.875 124.95 L 129.875 121 L 107.75 121 L 107.75 118 L 87 118 Z" id="right_outsideCutPath" stroke="#000000" stroke-width="0.1" style="stroke:#000000;stroke-width:0.1" vector-effect="non-scaling-stroke"/><path d="M 185 3 L 185 23.75 L 182 23.75 L 182 45.875 L 185.25 45.875 L 185.25 47.5 L 185.25 49.125 L 182 49.125 L 182 71.25 L 185 71.25 L 185 92 L 202.25 92 L 202.25 95 L 220.875 95 L 220.875 91.75 L 222.5 91.75 L 224.125 91.75 L 224.125 95 L 242.75 95 L 242.75 92 L 260 92 L 260 71.25 L 263 71.25 L 263 49.125 L 259.75 49.125 L 259.75 47.5 L 259.75 45.875 L 263 45.875 L 263 23.75 L 260 23.75 L 260 3 L 242.75 3 L 242.75 0 L 224.125 0 L 224.125 3.25 L 222.5 3.25 L 220.875 3.25 L 220.875 0 L 202.25 0 L 202.25 3 L 185 3 Z" id="bottom_outsideCutPath" stroke="#000000" stroke-width="0.1" style="stroke:#000000;stroke-width:0.1" vector-effect="non-scaling-stroke"/></g></svg>
